src/images_karasa_jaga_svg/sw/res/sf04.svg

<svg enable-background="new 0 0 128 128" height="16" viewBox="0 0 16 16" width="16" xmlns="http://www.w3.org/2000/svg" xmlns:xlink="http://www.w3.org/1999/xlink"><radialGradient id="a" cx="99.999985" cy="84.913841" fx="99.999985" fy="84.913841" gradientTransform="matrix(.00000023 2.4836602 -2.3558803 .00000024 300.04682 -199.92155)" gradientUnits="userSpaceOnUse" r="34" xlink:href="#e"/><radialGradient id="b" cx="110" cy="112.3047" gradientUnits="userSpaceOnUse" r="139.5585" xlink:href="#e"/><linearGradient id="c" gradientUnits="userSpaceOnUse" x1="96" x2="88.000198" y1="104" y2="96.000198"><stop offset="0" stop-color="#888a85"/><stop offset=".0072" stop-color="#8c8e89"/><stop offset=".0673" stop-color="#abaca9"/><stop offset=".1347" stop-color="#c5c6c4"/><stop offset=".2115" stop-color="#dbdbda"/><stop offset=".3012" stop-color="#ebebeb"/><stop offset=".4122" stop-color="#f7f7f6"/><stop offset=".5679" stop-color="#fdfdfd"/><stop offset="1" stop-color="#fff"/></linearGradient><radialGradient id="d" cx="110" cy="112.3047" gradientUnits="userSpaceOnUse" r="139.55859"><stop offset="0" stop-color="#535557"/><stop offset=".11366145" stop-color="#5b5b5d"/><stop offset=".20296688" stop-color="#848484" stop-opacity=".023529"/><stop offset=".2363" stop-color="#909090" stop-opacity="0"/><stop offset=".2722" stop-color="#8b8b8b" stop-opacity="0"/><stop offset=".5313" stop-color="#fafafa" stop-opacity=".058824"/><stop offset=".8449" stop-color="#ebecec" stop-opacity=".297794"/><stop offset="1" stop-color="#e1e2e3" stop-opacity=".169118"/></radialGradient><radialGradient id="e" cx="110" cy="112.3047" gradientUnits="userSpaceOnUse" r="139.5585"><stop offset="0" stop-color="#656565"/><stop offset=".24349999" stop-color="#fcfcfc"/><stop offset=".69912648" stop-color="#fff"/></radialGradient><filter id="f" height="1.247155" width="1.247155" x="-.123577" y="-.123577"><feGaussianBlur stdDeviation="1.7720846"/></filter><filter id="g"><feGaussianBlur stdDeviation=".90565481"/></filter><linearGradient id="h" gradientUnits="userSpaceOnUse" x1="85.219681" x2="61.336319" y1="93.219681" y2="69.336319"><stop offset="0"/><stop offset="1" stop-color="#393b38"/></linearGradient><filter id="i"><feGaussianBlur stdDeviation=".4901192"/></filter><g transform="scale(.125)"><g fill="none" stroke="#000" stroke-linejoin="round"><path d="m8 16v102c0 1.104.896 2 2 2h75.1875c.530003 0 1.03125-.21875 1.40625-.59375.000001 0 11.90625-9.90625 17.40625-15.40625s15.40625-17.40625 15.40625-17.40625c.375-.374999.59375-.87625.59375-1.40625v-69.1875z" opacity=".1" stroke-width="16"/><path d="m8 16v102c0 1.104.896 2 2 2h75.1875c.530003 0 1.03125-.21875 1.40625-.59375.000001 0 11.90625-9.90625 17.40625-15.40625s15.40625-17.40625 15.40625-17.40625c.375-.374999.59375-.87625.59375-1.40625v-69.1875z" opacity=".15" stroke-width="12"/><path d="m8 16v102c0 1.104.896 2 2 2h75.1875c.530003 0 1.03125-.21875 1.40625-.59375.000001 0 11.90625-9.90625 17.40625-15.40625s15.40625-17.40625 15.40625-17.40625c.375-.374999.59375-.87625.59375-1.40625v-69.1875z" opacity=".2" stroke-width="8"/><path d="m8 16v102c0 1.104.896 2 2 2h75.1875c.530003 0 1.03125-.21875 1.40625-.59375.000001 0 11.90625-9.90625 17.40625-15.40625s15.40625-17.40625 15.40625-17.40625c.375-.374999.59375-.87625.59375-1.40625v-69.1875z" opacity=".25" stroke-width="4"/></g><path d="m8 16v102c0 1.104.896 2 2 2h75.172c.53 0 1.039-.211 1.414-.586l32.828-32.828c.375-.375.586-.884.586-1.414v-69.172z" fill="url(#b)"/><path d="m17 24c-.551 0-1 .449-1 1v87c0 .552.449 1 1 1l74.172-1c.263 0 .521-.106.707-.293l20.828-20.828c.187-.187.293-.444.293-.707v-65.172c0-.551-.448-1-1-1z" fill="url(#d)"/><path d="m28 32h44.251246l31.748754 36v36l-18 13h-58z" fill="#3b3b3b"/><path d="m32 36h39.59322l28.40678 33.777778v34.222222l-12 12h-56z" fill="url(#a)"/><path d="m72.174756 32 31.243004 35.16106h-31.178172z" fill="#3b3b3b"/><path d="m75.961576 43.16106 18.516821 20.83894h-18.478397z" fill="#fff"/><g transform="translate(8)"><path d="m111.414 86.586c.25-.25-26.379-1.586-31.414-1.586-1.654 0-3 1.346-3 3 0 5.035 1.336 31.664 1.586 31.414z" filter="url(#f)" opacity=".906849"/><path d="m111.414 86.586c.375-.375-21.97-.586-31.414-.586-1.103 0-2 .897-2 2 0 9.444.211 31.789.586 31.414z" filter="url(#g)" opacity=".2"/><path d="m111.414 86.586c.239-.239-21.607.414-31.414.414-.553 0-1 .447-1 1 0 9.807-.653 31.653-.414 31.414z" fill="url(#h)" filter="url(#i)" opacity=".1"/><path d="m78.586 119.414s11.914-9.914 17.414-15.414 15.414-17.414 15.414-17.414-21.164 1.414-31.414 1.414c0 10.25-1.414 31.414-1.414 31.414z" fill="url(#c)"/></g></g></svg>

<?xml version="1.0" encoding="UTF-8" standalone="no"?>
<svg
   xmlns:dc="http://purl.org/dc/elements/1.1/"
   xmlns:cc="http://creativecommons.org/ns#"
   xmlns:rdf="http://www.w3.org/1999/02/22-rdf-syntax-ns#"
   xmlns:svg="http://www.w3.org/2000/svg"
   xmlns="http://www.w3.org/2000/svg"
   xmlns:xlink="http://www.w3.org/1999/xlink"
   xmlns:sodipodi="http://sodipodi.sourceforge.net/DTD/sodipodi-0.dtd"
   xmlns:inkscape="http://www.inkscape.org/namespaces/inkscape"
   enable-background="new 0 0 128 128"
   height="128"
   viewBox="0 0 128 128"
   width="128"
   version="1.1"
   id="svg90"
   sodipodi:docname="sf04.svg"
   inkscape:version="0.92.3 (unknown)"
   inkscape:export-filename="/home/rizmut/Dokumen/Rizmut/Github/libreoffice-style-karasa-jaga/build/images_karasa_jaga/sw/res/sf04.png"
   inkscape:export-xdpi="12"
   inkscape:export-ydpi="12">
  <metadata
     id="metadata96">
    <rdf:RDF>
      <cc:Work
         rdf:about="">
        <dc:format>image/svg+xml</dc:format>
        <dc:type
           rdf:resource="http://purl.org/dc/dcmitype/StillImage" />
        <dc:title></dc:title>
      </cc:Work>
    </rdf:RDF>
  </metadata>
  <defs
     id="defs94">
    <radialGradient
       inkscape:collect="always"
       xlink:href="#c"
       id="radialGradient1144"
       cx="99.999985"
       cy="84.913841"
       fx="99.999985"
       fy="84.913841"
       r="34"
       gradientTransform="matrix(2.2826982e-7,2.4836602,-2.3558803,2.4125247e-7,300.04682,-199.92155)"
       gradientUnits="userSpaceOnUse" />
  </defs>
  <sodipodi:namedview
     pagecolor="#ffffff"
     bordercolor="#666666"
     borderopacity="1"
     objecttolerance="10"
     gridtolerance="10"
     guidetolerance="10"
     inkscape:pageopacity="0"
     inkscape:pageshadow="2"
     inkscape:window-width="1366"
     inkscape:window-height="706"
     id="namedview92"
     showgrid="true"
     inkscape:snap-global="true"
     inkscape:zoom="2.6074563"
     inkscape:cx="135.44225"
     inkscape:cy="78.935426"
     inkscape:window-x="0"
     inkscape:window-y="0"
     inkscape:window-maximized="1"
     inkscape:current-layer="svg90">
    <inkscape:grid
       type="xygrid"
       id="grid903"
       spacingx="4"
       spacingy="4"
       empspacing="2" />
  </sodipodi:namedview>
  <linearGradient
     id="a"
     gradientUnits="userSpaceOnUse"
     x1="96"
     x2="88.0002"
     y1="104"
     y2="96.0002">
    <stop
       offset="0"
       stop-color="#888a85"
       id="stop2" />
    <stop
       offset=".0072"
       stop-color="#8c8e89"
       id="stop4" />
    <stop
       offset=".0673"
       stop-color="#abaca9"
       id="stop6" />
    <stop
       offset=".1347"
       stop-color="#c5c6c4"
       id="stop8" />
    <stop
       offset=".2115"
       stop-color="#dbdbda"
       id="stop10" />
    <stop
       offset=".3012"
       stop-color="#ebebeb"
       id="stop12" />
    <stop
       offset=".4122"
       stop-color="#f7f7f6"
       id="stop14" />
    <stop
       offset=".5679"
       stop-color="#fdfdfd"
       id="stop16" />
    <stop
       offset="1"
       stop-color="#fff"
       id="stop18" />
  </linearGradient>
  <radialGradient
     id="b"
     cx="110"
     cy="112.3047"
     gradientUnits="userSpaceOnUse"
     r="139.55859">
    <stop
       offset="0"
       stop-color="#535557"
       id="stop21" />
    <stop
       offset=".11366145"
       stop-color="#5b5b5d"
       id="stop23" />
    <stop
       offset=".20296688"
       stop-color="#848484"
       stop-opacity=".023529"
       id="stop25" />
    <stop
       offset=".2363"
       stop-color="#909090"
       stop-opacity="0"
       id="stop27" />
    <stop
       offset=".2722"
       stop-color="#8b8b8b"
       stop-opacity="0"
       id="stop29" />
    <stop
       offset=".5313"
       stop-color="#fafafa"
       stop-opacity=".058824"
       id="stop31" />
    <stop
       offset=".8449"
       stop-color="#ebecec"
       stop-opacity=".297794"
       id="stop33" />
    <stop
       offset="1"
       stop-color="#e1e2e3"
       stop-opacity=".169118"
       id="stop35" />
  </radialGradient>
  <radialGradient
     id="c"
     cx="110"
     cy="112.3047"
     gradientUnits="userSpaceOnUse"
     r="139.5585">
    <stop
       offset="0"
       stop-color="#656565"
       id="stop38" />
    <stop
       offset=".24349999"
       stop-color="#fcfcfc"
       id="stop40" />
    <stop
       offset="0.69912648"
       stop-color="#fff"
       id="stop42" />
  </radialGradient>
  <filter
     id="d"
     height="1.247155"
     width="1.247155"
     x="-.123577"
     y="-.123577">
    <feGaussianBlur
       stdDeviation="1.7720846"
       id="feGaussianBlur45" />
  </filter>
  <filter
     id="e">
    <feGaussianBlur
       stdDeviation=".90565481"
       id="feGaussianBlur48" />
  </filter>
  <linearGradient
     id="f"
     gradientUnits="userSpaceOnUse"
     x1="85.219681"
     x2="61.336319"
     y1="93.219681"
     y2="69.336319">
    <stop
       offset="0"
       id="stop51" />
    <stop
       offset="1"
       stop-color="#393b38"
       id="stop53" />
  </linearGradient>
  <filter
     id="g">
    <feGaussianBlur
       stdDeviation=".4901192"
       id="feGaussianBlur56" />
  </filter>
  <linearGradient
     id="h"
     gradientUnits="userSpaceOnUse"
     x1="48"
     x2="56"
     y1="104"
     y2="8">
    <stop
       offset="0"
       stop-color="#0968ef"
       id="stop59" />
    <stop
       offset="1"
       stop-color="#aecffc"
       id="stop61" />
  </linearGradient>
  <g
     id="g1171">
    <g
       id="g72"
       style="fill:none;stroke:#000000;stroke-linejoin:round">
      <path
         id="path64"
         d="m 8,16 v 102 c 0,1.104 0.896,2 2,2 h 75.1875 c 0.530003,0 1.03125,-0.21875 1.40625,-0.59375 C 86.593751,119.40625 98.5,109.5 104,104 109.5,98.5 119.40625,86.59375 119.40625,86.59375 119.78125,86.218751 120,85.7175 120,85.1875 V 16 Z"
         inkscape:connector-curvature="0"
         style="opacity:0.1;stroke-width:16" />
      <path
         id="path66"
         d="m 8,16 v 102 c 0,1.104 0.896,2 2,2 h 75.1875 c 0.530003,0 1.03125,-0.21875 1.40625,-0.59375 C 86.593751,119.40625 98.5,109.5 104,104 109.5,98.5 119.40625,86.59375 119.40625,86.59375 119.78125,86.218751 120,85.7175 120,85.1875 V 16 Z"
         inkscape:connector-curvature="0"
         style="opacity:0.15;stroke-width:12" />
      <path
         id="path68"
         d="m 8,16 v 102 c 0,1.104 0.896,2 2,2 h 75.1875 c 0.530003,0 1.03125,-0.21875 1.40625,-0.59375 C 86.593751,119.40625 98.5,109.5 104,104 109.5,98.5 119.40625,86.59375 119.40625,86.59375 119.78125,86.218751 120,85.7175 120,85.1875 V 16 Z"
         inkscape:connector-curvature="0"
         style="opacity:0.2;stroke-width:8" />
      <path
         id="path70"
         d="m 8,16 v 102 c 0,1.104 0.896,2 2,2 h 75.1875 c 0.530003,0 1.03125,-0.21875 1.40625,-0.59375 C 86.593751,119.40625 98.5,109.5 104,104 109.5,98.5 119.40625,86.59375 119.40625,86.59375 119.78125,86.218751 120,85.7175 120,85.1875 V 16 Z"
         inkscape:connector-curvature="0"
         style="opacity:0.25;stroke-width:4" />
    </g>
    <path
       id="path74"
       d="m 8,16 v 102 c 0,1.104 0.896,2 2,2 h 75.172 c 0.53,0 1.039,-0.211 1.414,-0.586 L 119.414,86.586 C 119.789,86.211 120,85.702 120,85.172 V 16 Z"
       style="fill:url(#c)"
       inkscape:connector-curvature="0" />
    <path
       id="path76"
       d="m 17,24 c -0.551,0 -1,0.449 -1,1 v 87 c 0,0.552 0.449,1 1,1 l 74.172,-1 c 0.263,0 0.521,-0.106 0.707,-0.293 L 112.707,90.879 C 112.894,90.692 113,90.435 113,90.172 V 25 c 0,-0.551 -0.448,-1 -1,-1 z"
       style="fill:url(#b)"
       inkscape:connector-curvature="0" />
    <g
       id="g1152">
      <path
         sodipodi:nodetypes="ccccccc"
         inkscape:connector-curvature="0"
         id="path1134"
         d="M 28,32 H 72.251246 L 104,68 v 36 L 86,117 H 28 Z"
         style="opacity:1;fill:#3b3b3b;fill-opacity:1;stroke:none;stroke-width:23.52576637;stroke-linecap:round;stroke-linejoin:round;stroke-miterlimit:4;stroke-dasharray:none;stroke-dashoffset:0;stroke-opacity:1" />
      <path
         style="opacity:1;fill:url(#radialGradient1144);fill-opacity:1;stroke:none;stroke-width:21.55538177;stroke-linecap:round;stroke-linejoin:round;stroke-miterlimit:4;stroke-dasharray:none;stroke-dashoffset:0;stroke-opacity:1"
         d="M 32,36 H 71.59322 L 100,69.777778 V 104 L 88,116 H 32 Z"
         id="rect1128"
         inkscape:connector-curvature="0"
         sodipodi:nodetypes="ccccccc" />
      <path
         sodipodi:nodetypes="cccc"
         inkscape:connector-curvature="0"
         id="path1146"
         d="M 72.174756,32 103.41776,67.16106 H 72.239588 Z"
         style="opacity:1;fill:#3b3b3b;fill-opacity:1;stroke:none;stroke-width:25.3091526;stroke-linecap:round;stroke-linejoin:round;stroke-miterlimit:4;stroke-dasharray:none;stroke-dashoffset:0;stroke-opacity:1" />
      <path
         style="opacity:1;fill:#ffffff;fill-opacity:1;stroke:none;stroke-width:15;stroke-linecap:round;stroke-linejoin:round;stroke-miterlimit:4;stroke-dasharray:none;stroke-dashoffset:0;stroke-opacity:1"
         d="M 75.961576,43.16106 94.478397,64 H 76 Z"
         id="rect1130"
         inkscape:connector-curvature="0"
         sodipodi:nodetypes="cccc" />
    </g>
    <g
       id="g88"
       transform="translate(8)">
      <path
         id="path80"
         d="M 111.414,86.586 C 111.664,86.336 85.035,85 80,85 c -1.654,0 -3,1.346 -3,3 0,5.035 1.336,31.664 1.586,31.414 z"
         inkscape:connector-curvature="0"
         style="opacity:0.90684904;filter:url(#d)" />
      <path
         id="path82"
         d="M 111.414,86.586 C 111.789,86.211 89.444,86 80,86 c -1.103,0 -2,0.897 -2,2 0,9.444 0.211,31.789 0.586,31.414 z"
         inkscape:connector-curvature="0"
         style="opacity:0.2;filter:url(#e)" />
      <path
         id="path84"
         d="M 111.414,86.586 C 111.653,86.347 89.807,87 80,87 c -0.553,0 -1,0.447 -1,1 0,9.807 -0.653,31.653 -0.414,31.414 z"
         style="opacity:0.1;fill:url(#f);filter:url(#g)"
         inkscape:connector-curvature="0" />
      <path
         id="path86"
         d="m 78.586,119.414 c 0,0 11.914,-9.914 17.414,-15.414 5.5,-5.5 15.414,-17.414 15.414,-17.414 0,0 -21.164,1.414 -31.414,1.414 0,10.25 -1.414,31.414 -1.414,31.414 z"
         style="fill:url(#a)"
         inkscape:connector-curvature="0" />
    </g>
  </g>
</svg>
